public/assets/badges/eersteVoting.svg

<svg fill="none" height="191" viewBox="0 0 191 191" width="191" xmlns="http://www.w3.org/2000/svg" xmlns:xlink="http://www.w3.org/1999/xlink"><filter id="a" color-interpolation-filters="sRGB" filterUnits="userSpaceOnUse" height="160.822" width="170.756" x="10.4658" y="16.9985"><feFlood flood-opacity="0" result="BackgroundImageFix"/><feColorMatrix in="SourceAlpha" type="matrix" values="0 0 0 0 0 0 0 0 0 0 0 0 0 0 0 0 0 0 127 0"/><feOffset dy="4"/><feColorMatrix type="matrix" values="0 0 0 0 0 0 0 0 0 0 0 0 0 0 0 0 0 0 0.15 0"/><feBlend in2="BackgroundImageFix" mode="normal" result="effect1_dropShadow"/><feBlend in="SourceGraphic" in2="effect1_dropShadow" mode="normal" result="shape"/></filter><filter id="b" color-interpolation-filters="sRGB" filterUnits="userSpaceOnUse" height="81.6291" width="69.9544" x="60.8271" y="49.6865"><feFlood flood-opacity="0" result="BackgroundImageFix"/><feColorMatrix in="SourceAlpha" type="matrix" values="0 0 0 0 0 0 0 0 0 0 0 0 0 0 0 0 0 0 127 0"/><feOffset dy="1"/><feColorMatrix type="matrix" values="0 0 0 0 0 0 0 0 0 0 0 0 0 0 0 0 0 0 0.15 0"/><feBlend in2="BackgroundImageFix" mode="normal" result="effect1_dropShadow"/><feBlend in="SourceGraphic" in2="effect1_dropShadow" mode="normal" result="shape"/></filter><filter id="c" color-interpolation-filters="sRGB" filterUnits="userSpaceOnUse" height="30.4663" width="30.9827" x="80.001" y="60.6582"><feFlood flood-opacity="0" result="BackgroundImageFix"/><feColorMatrix in="SourceAlpha" type="matrix" values="0 0 0 0 0 0 0 0 0 0 0 0 0 0 0 0 0 0 127 0"/><feOffset dy="1"/><feColorMatrix type="matrix" values="0 0 0 0 0 0 0 0 0 0 0 0 0 0 0 0 0 0 0.15 0"/><feBlend in2="BackgroundImageFix" mode="normal" result="effect1_dropShadow"/><feBlend in="SourceGraphic" in2="effect1_dropShadow" mode="normal" result="shape"/></filter><g filter="url(#a)"><path d="m152.506 133.441 24.9-57.9478c1.367-3.1812 1.024-6.8473-1.086-9.5923-28.272-36.7725-94.3546-81.5862-160.6811-.1216-2.2587 2.7743-2.7958 6.6344-1.4279 9.9401l23.8325 57.5946c.7765 1.876 2.106 3.472 3.8115 4.574l48.4687 31.331c3.3301 2.153 7.6176 2.134 10.9293-.047l47.565-31.328c1.634-1.075 2.916-2.606 3.688-4.403z" fill="#ffed00"/><path d="m152.506 133.441 24.9-57.9478c1.367-3.1812 1.024-6.8473-1.086-9.5923-28.272-36.7725-94.3546-81.5862-160.6811-.1216-2.2587 2.7743-2.7958 6.6344-1.4279 9.9401l23.8325 57.5946c.7765 1.876 2.106 3.472 3.8115 4.574l48.4687 31.331c3.3301 2.153 7.6176 2.134 10.9293-.047l47.565-31.328c1.634-1.075 2.916-2.606 3.688-4.403z" stroke="#eee" stroke-width="6"/></g><g filter="url(#b)"><g fill="#54bbab"><rect height="33.8391" rx="5" transform="matrix(.88378523 -.46789279 .46789279 .88378523 -35.628254 57.374929)" width="19.5341" x="97.6846" y="100.409"/><rect height="33.8391" rx="5" transform="matrix(-.883785 -.467893 -.467893 .883785 93.9243 100.409)" width="19.5341"/><circle cx="95.4935" cy="76.9467" r="24.2601" stroke="#eee" stroke-width="6"/></g><circle cx="95.4926" cy="76.9467" r="24.2601" stroke="#eee" stroke-width="6"/><g filter="url(#c)"><path d="m95.4922 60.6582 3.657 11.2551h11.8338l-9.574 6.9561 3.657 11.2551-9.5738-6.9561-9.5742 6.9561 3.657-11.2551-9.5742-6.9561h11.8344z" fill="#eee"/></g></g></svg>

<svg width="191" height="191" viewBox="0 0 191 191" fill="none" xmlns="http://www.w3.org/2000/svg">
<g filter="url(#filter0_d)">
<path d="M152.506 133.441L177.406 75.4932C178.773 72.312 178.43 68.6459 176.32 65.9009C148.048 29.1284 81.9654 -15.6853 15.6389 65.7793C13.3802 68.5536 12.8431 72.4137 14.211 75.7194L38.0435 133.314C38.82 135.19 40.1495 136.786 41.855 137.888L90.3237 169.219C93.6538 171.372 97.9413 171.353 101.253 169.172L148.818 137.844C150.452 136.769 151.734 135.238 152.506 133.441Z" fill="#FFED00"/>
<path d="M152.506 133.441L177.406 75.4932C178.773 72.312 178.43 68.6459 176.32 65.9009C148.048 29.1284 81.9654 -15.6853 15.6389 65.7793C13.3802 68.5536 12.8431 72.4137 14.211 75.7194L38.0435 133.314C38.82 135.19 40.1495 136.786 41.855 137.888L90.3237 169.219C93.6538 171.372 97.9413 171.353 101.253 169.172L148.818 137.844C150.452 136.769 151.734 135.238 152.506 133.441Z" stroke="#EEEEEE" stroke-width="6"/>
</g>
<g filter="url(#filter1_d)">
<rect x="97.6846" y="100.409" width="19.5341" height="33.8391" rx="5" transform="rotate(-27.8976 97.6846 100.409)" fill="#54BBAB"/>
<rect width="19.5341" height="33.8391" rx="5" transform="matrix(-0.883785 -0.467893 -0.467893 0.883785 93.9243 100.409)" fill="#54BBAB"/>
<circle cx="95.4935" cy="76.9467" r="24.2601" fill="#54BBAB" stroke="#EEEEEE" stroke-width="6"/>
<circle cx="95.4926" cy="76.9467" r="24.2601" stroke="#EEEEEE" stroke-width="6"/>
<g filter="url(#filter2_d)">
<path d="M95.4922 60.6582L99.1492 71.9133H110.983L101.409 78.8694L105.066 90.1245L95.4922 83.1684L85.918 90.1245L89.575 78.8694L80.0008 71.9133H91.8352L95.4922 60.6582Z" fill="#EEEEEE"/>
</g>
</g>
<defs>
<filter id="filter0_d" x="10.4658" y="16.9985" width="170.756" height="160.822" filterUnits="userSpaceOnUse" color-interpolation-filters="sRGB">
<feFlood flood-opacity="0" result="BackgroundImageFix"/>
<feColorMatrix in="SourceAlpha" type="matrix" values="0 0 0 0 0 0 0 0 0 0 0 0 0 0 0 0 0 0 127 0"/>
<feOffset dy="4"/>
<feColorMatrix type="matrix" values="0 0 0 0 0 0 0 0 0 0 0 0 0 0 0 0 0 0 0.15 0"/>
<feBlend mode="normal" in2="BackgroundImageFix" result="effect1_dropShadow"/>
<feBlend mode="normal" in="SourceGraphic" in2="effect1_dropShadow" result="shape"/>
</filter>
<filter id="filter1_d" x="60.8271" y="49.6865" width="69.9544" height="81.6291" filterUnits="userSpaceOnUse" color-interpolation-filters="sRGB">
<feFlood flood-opacity="0" result="BackgroundImageFix"/>
<feColorMatrix in="SourceAlpha" type="matrix" values="0 0 0 0 0 0 0 0 0 0 0 0 0 0 0 0 0 0 127 0"/>
<feOffset dy="1"/>
<feColorMatrix type="matrix" values="0 0 0 0 0 0 0 0 0 0 0 0 0 0 0 0 0 0 0.15 0"/>
<feBlend mode="normal" in2="BackgroundImageFix" result="effect1_dropShadow"/>
<feBlend mode="normal" in="SourceGraphic" in2="effect1_dropShadow" result="shape"/>
</filter>
<filter id="filter2_d" x="80.001" y="60.6582" width="30.9827" height="30.4663" filterUnits="userSpaceOnUse" color-interpolation-filters="sRGB">
<feFlood flood-opacity="0" result="BackgroundImageFix"/>
<feColorMatrix in="SourceAlpha" type="matrix" values="0 0 0 0 0 0 0 0 0 0 0 0 0 0 0 0 0 0 127 0"/>
<feOffset dy="1"/>
<feColorMatrix type="matrix" values="0 0 0 0 0 0 0 0 0 0 0 0 0 0 0 0 0 0 0.15 0"/>
<feBlend mode="normal" in2="BackgroundImageFix" result="effect1_dropShadow"/>
<feBlend mode="normal" in="SourceGraphic" in2="effect1_dropShadow" result="shape"/>
</filter>
</defs>
</svg>
